X: 1
T: the Runaway Bride
R: jig
B: RSCDS 16-12(II)
Z: 1997 by John Chambers <jc:trillian.mit.edu>
N: "Surenne"
M: 6/8
L: 1/8
K: G
d/c/ \
| "G"B2B "Am"AGA | "G"G3 d2d | "C"e2d c2B | "G"B3 "D7"A2d/c/ \
| "G"B2B "Am"AGA | "G"G3 d2d | "C"e>fg "A7"f>af | "D"d3- d2 ||
|| d \
| "C"efg "A`D7"fga | "G"d3 d>cB | "C"e2d c2B | "G"[B3G3] "D7"[A2F2]d/c/ \
| "G"B2B "Am"AGA | "G"G3 d2d | "C"e>fg "D7"f<af | "G"g3- g2 |]
